pages/main-page/img/certificate.svg

<svg width="64" height="79" viewBox="0 0 64 79" fill="none" xmlns="http://www.w3.org/2000/svg">
<path d="M63.2078 36.0654V35.834L2.48763 0.707031H2.3025L0.497559 1.74836L61.3797 36.8753V78.7824L63.2078 77.718V36.0654Z" fill="#053D96"/>
<path d="M44.9048 69.3011L44.3958 69.025L40.4619 66.747L39.5594 64.239L59.8998 75.9048L59.9461 75.9278H59.9923H60.0155L60.0386 75.9048L60.0618 75.8588V75.8358V38.1231V38.0771L60.0386 38.0081L60.0155 37.9621L59.9923 37.9161L59.9461 37.8931L59.8998 37.847L22.505 16.3791L21.6025 13.8711L61.5196 36.7656L61.589 36.8346L61.6122 36.8576L61.6584 36.9036L61.6816 36.9497L61.7278 36.9957L61.751 37.0417V37.0877L61.7741 37.1337L61.7973 37.1798V37.2718V78.4129L61.7741 78.5509L61.751 78.6199L61.7278 78.666L61.6816 78.712L61.6584 78.735L61.6122 78.758L61.5427 78.781H61.4733L61.427 78.758L61.2882 78.712L44.9048 69.3011Z" fill="#629BD6"/>
<path d="M39.5581 64.5274L2.25589 42.9838L2.20963 42.9606L2.16334 42.9144L2.14018 42.8681L2.11705 42.8218L2.09392 42.7755V42.7292V4.80228V4.75598L2.11705 4.70969L2.14018 4.68657H2.16334H2.20963L2.25589 4.70969L22.5037 16.3956L21.6012 13.8733L0.636071 1.7709L0.566653 1.72461H0.543525H0.497235H0.474107L0.427817 1.74774L0.404654 1.7709V1.79403L0.381526 1.81716L0.358398 1.86345V1.93286V43.3078L0.381526 43.4697L0.404654 43.5623L0.427817 43.6548L0.450944 43.7243L0.497235 43.8168L0.543525 43.8863L0.612943 43.9788L0.659198 44.0482L0.728652 44.0945L0.867488 44.1871L27.1086 59.344L40.4606 67.0497L39.5581 64.5274Z" fill="#4D88C5"/>
<path d="M60.0604 76.2109L60.0372 76.2571L60.0141 76.2803H59.9447L59.8984 76.2571L39.5581 64.525L22.5037 16.3932L59.8984 37.9831L59.9447 38.0294L59.9909 38.0525L60.0372 38.145L60.0604 38.2145V76.2109Z" fill="white"/>
<path d="M2.25571 4.71063L2.20946 4.6875H2.14001L2.11688 4.71063L2.09375 4.75692V42.7764L2.16317 42.9153L2.20946 42.9616L2.25571 42.9847L39.5579 64.5283L22.5035 16.3965L2.25571 4.71063Z" fill="#F8F8F8"/>
<rect width="39.7962" height="2.8455" transform="matrix(0.866025 0.5 -2.20305e-08 1 13.8447 25.3574)" fill="#454553"/>
<rect width="26.8161" height="2.8455" transform="matrix(0.866025 0.5 -2.20305e-08 1 19.4653 33.9746)" fill="#033E84"/>
<rect width="39.7962" height="2.8455" transform="matrix(0.866025 0.5 -2.20305e-08 1 13.8447 40.5527)" fill="#454553"/>
<circle r="4.10846" transform="matrix(0.866025 0.5 -2.20305e-08 1 31.0771 29.5943)" fill="#033E84"/>
</svg>

<svg width="64" height="79" fill="none" xmlns="http://www.w3.org/2000/svg"><path d="M63.208 36.065v-.231L2.488.707h-.185L.498 1.748 61.38 36.875v41.907l1.828-1.064V36.065Z" fill="#053D96"/><path d="m44.905 69.301-.51-.276-3.933-2.278-.903-2.508L59.9 75.905l.047.023h.07l.023-.023.023-.046V38.077l-.023-.069-.023-.046-.024-.046-.046-.023-.046-.046-37.395-21.468-.902-2.508L61.52 36.766l.069.069.023.023.046.046.024.046.046.046.023.046v.046l.023.046.023.046v41.232l-.023.139-.023.069-.023.046-.046.046-.024.023-.046.023-.07.023h-.069l-.046-.023-.139-.046-16.383-9.41Z" fill="#629BD6"/><path d="M39.558 64.527 2.256 42.984l-.046-.023-.047-.047-.023-.046-.023-.046-.023-.047V4.757l.023-.046.023-.023h.07l.046.023 20.248 11.686-.903-2.523L.636 1.771l-.07-.046H.475l-.046.023-.023.023v.023l-.023.023-.024.046v41.445l.024.162.023.092.023.093.023.07.046.092.047.07.069.092.046.07.07.045.138.093L27.11 59.344 40.46 67.05l-.903-2.523Z" fill="#4D88C5"/><path d="m60.06 76.21-.023.047-.023.023h-.07l-.046-.023-20.34-11.732-17.054-48.132 37.394 21.59.047.046.046.023.046.093.023.07V76.21Z" fill="#fff"/><path d="m2.256 4.71-.047-.022H2.14l-.023.023-.023.046v38.02l.07.138.045.047.047.023 37.302 21.543-17.055-48.132L2.256 4.712Z" fill="#F8F8F8"/><path fill="#454553" d="m13.845 25.357 34.464 19.898V48.1L13.845 28.202z"/><path fill="#033E84" d="M19.465 33.975 42.69 47.383v2.845L19.465 36.82z"/><path fill="#454553" d="M13.845 40.553 48.309 60.45v2.845L13.845 43.398z"/><circle r="4.108" transform="matrix(.86603 .5 0 1 31.077 29.594)" fill="#033E84"/></svg>
